apps/trade/public/tokens/usdt.svg

<svg width="24" height="24" viewBox="0 0 24 24" fill="none" xmlns="http://www.w3.org/2000/svg">
    <rect width="24" height="24" rx="12" fill="#50AF95" />
    <g clip-path="url(#clip0_10509_1454)">
        <path fill-rule="evenodd" clip-rule="evenodd"
            d="M4.39446 2.10251L0.0184181 11.2944C0.00176604 11.3286 -0.00351091 11.3672 0.003359 11.4046C0.0102289 11.442 0.0288853 11.4762 0.0565998 11.5023L11.8752 22.8274C11.9088 22.8596 11.9535 22.8775 12 22.8775C12.0465 22.8775 12.0913 22.8596 12.1248 22.8274L23.9435 11.503C23.9712 11.4769 23.9898 11.4427 23.9967 11.4053C24.0036 11.3679 23.9983 11.3293 23.9817 11.2951L19.6056 2.10322C19.5915 2.07234 19.5688 2.04619 19.5402 2.02789C19.5116 2.00958 19.4783 1.99989 19.4444 1.99998H4.55709C4.52298 1.99956 4.48947 2.00901 4.46062 2.0272C4.43176 2.0454 4.40878 2.07155 4.39446 2.10251Z"
            fill="#50AF95" />
        <path fill-rule="evenodd" clip-rule="evenodd"
            d="M13.5184 12.2384C13.4336 12.2447 12.9952 12.2709 12.0173 12.2709C11.2396 12.2709 10.6873 12.2475 10.4936 12.2384C7.48786 12.1061 5.24433 11.5829 5.24433 10.9564C5.24433 10.33 7.48786 9.80745 10.4936 9.67311V11.7172C10.6902 11.7314 11.253 11.7646 12.0308 11.7646C12.9641 11.7646 13.4315 11.7257 13.5156 11.7179V9.67452C16.515 9.80816 18.7536 10.3314 18.7536 10.9564C18.7536 11.5815 16.5157 12.1047 13.5156 12.2376L13.5184 12.2384ZM13.5184 9.46311V7.63393H17.7043V4.84454H6.30776V7.63393H10.4929V9.4624C7.09119 9.61866 4.53302 10.2925 4.53302 11.1C4.53302 11.9074 7.09119 12.5806 10.4929 12.7375V18.5991H13.5177V12.7354C16.9117 12.5792 19.4656 11.906 19.4656 11.0993C19.4656 10.2925 16.9138 9.61937 13.5177 9.4624L13.5184 9.46311Z"
            fill="white" />
    </g>
    <defs>
        <clipPath id="clip0_10509_1454">
            <rect width="24" height="20.8776" fill="white" transform="translate(0 2)" />
        </clipPath>
    </defs>
</svg>

<svg width="24" height="24" fill="none" xmlns="http://www.w3.org/2000/svg">
    <rect width="24" height="24" rx="12" fill="#50AF95"/>
    <g clip-path="url(#a)" fill-rule="evenodd" clip-rule="evenodd">
        <path d="M4.394 2.103.018 11.294a.178.178 0 0 0 .039.208l11.818 11.325a.18.18 0 0 0 .25 0l11.819-11.324a.179.179 0 0 0 .038-.208l-4.376-9.192A.176.176 0 0 0 19.444 2H4.557a.177.177 0 0 0-.163.103Z" fill="#50AF95"/>
        <path d="M13.518 12.238c-.084.007-.523.033-1.5.033-.778 0-1.33-.024-1.524-.033-3.006-.132-5.25-.655-5.25-1.282 0-.626 2.244-1.149 5.25-1.283v2.044c.196.014.759.048 1.537.048.933 0 1.4-.04 1.485-.047V9.675c2.999.133 5.238.656 5.238 1.281 0 .626-2.238 1.149-5.238 1.282h.002Zm0-2.775v-1.83h4.186V4.846H6.308v2.789h4.185v1.828c-3.402.157-5.96.83-5.96 1.638 0 .807 2.558 1.48 5.96 1.638v5.861h3.025v-5.864c3.394-.156 5.948-.829 5.948-1.636 0-.806-2.552-1.48-5.948-1.637v.001Z" fill="#fff"/>
    </g>
    <defs>
        <clipPath id="a">
            <path fill="#fff" d="M0 2h24v20.878H0z"/>
        </clipPath>
    </defs>
</svg>
